build/flags/Qatar.svg

<svg xmlns="http://www.w3.org/2000/svg" fill="none" viewBox="0 0 28 28" focusable="false"><defs><filter id="Qatar_svg__a"><feColorMatrix values="0 0 0 0 1 0 0 0 0 1 0 0 0 0 1 0 0 0 1 0"/></filter></defs><mask id="Qatar_svg__b" width="28" height="20" x="0" y="4" maskUnits="userSpaceOnUse"><g filter="url(#Qatar_svg__a)"><rect width="28" height="20" y="4" fill="#FFF" rx="3"/><rect width="27.5" height="19.5" x=".25" y="4.25" stroke="#F5F5F5" stroke-width=".5" rx="2.75"/></g></mask><path fill="none" d="M0 0H28V28H0z"/><rect width="28" height="20" y="4" fill="#FFF" rx="3"/><rect width="27.5" height="19.5" x=".25" y="4.25" stroke="#D6D8DD" stroke-width=".5" rx="2.75"/><g mask="url(#Qatar_svg__b)"><path fill="#A6264C" fill-rule="evenodd" d="M28 24L28 4L8 4L10 5.33333L8 6.66667L10 8L8 9.33333L10 10.6667L8 12L10 13.3333L8 14.6667L10 16L8 17.3333L10 18.6667L8 20L10 21.3333L8 22.6667L10 24L28 24Z"/><path d="M28 24L28 4L8 4L10 5.33333L8 6.66667L10 8L8 9.33333L10 10.6667L8 12L10 13.3333L8 14.6667L10 16L8 17.3333L10 18.6667L8 20L10 21.3333L8 22.6667L10 24L28 24Z"/></g></svg>

<svg xmlns="http://www.w3.org/2000/svg" fill="none" viewBox="0 0 28 28" focusable="false"><path fill="none" d="M0 0h28v28H0z"/><rect width="28" height="20" y="4" fill="#FFF" rx="3"/><rect width="27.5" height="19.5" x=".25" y="4.25" stroke="#D6D8DD" stroke-width=".5" rx="3"/><mask id="Qatar_svg__a" width="28" height="20" x="0" y="4" mask-type="alpha" maskUnits="userSpaceOnUse"><rect width="28" height="20" y="4" fill="#FFF" rx="3"/><rect width="27.5" height="19.5" x=".25" y="4.25" stroke="#F5F5F5" stroke-width=".5" rx="3"/></mask><g mask="url(#Qatar_svg__a)"><mask id="Qatar_svg__b" fill="#fff"><path fill-rule="evenodd" d="M10 24h18V4H8l2 1.333-2 1.334L10 8 8 9.333l2 1.334L8 12l2 1.333-2 1.334L10 16l-2 1.333 2 1.334L8 20l2 1.333-2 1.334z" clip-rule="evenodd"/></mask><path fill="#A6264C" fill-rule="evenodd" d="M10 24h18V4H8l2 1.333-2 1.334L10 8 8 9.333l2 1.334L8 12l2 1.333-2 1.334L10 16l-2 1.333 2 1.334L8 20l2 1.333-2 1.334z" clip-rule="evenodd" mask="url(#Qatar_svg__b)"/></g></svg>
